X: 6
T: Rolling In The Barrel
R: reel
M: 4/4
L: 1/8
K: Dmaj
D|:"e"E2~E2BEE2|B2AF "D"DF AF|"e"E2~E2BEE2|"D"B2Ad BE ED|
"e"E2~E2BEE2|Bd AF "D"DF AF|E2~E2BEE2|Bd Ad "e"BE Ed|
e2fe be fe |"D"d2df a2af|"e"e2fe be fe|"D"dB AF "e"FE Ed|
e2fe be fe |"D"d2df a2af|"e"e {f}g fe "D"fd ec|dB AF "e"FE ED:|


Tune 500	Setting 13413

